assets/email.svg

<svg width="96" height="96" viewBox="0 0 96 96" fill="none" xmlns="http://www.w3.org/2000/svg">
<path d="M48 27.8999C36.96 27.8999 28 36.8599 28 47.8999C28 58.9399 36.96 67.8999 48 67.8999H56C57.1046 67.8999 58 67.0045 58 65.8999C58 64.7953 57.1046 63.8999 56 63.8999H48C39.32 63.8999 32 56.5799 32 47.8999C32 39.2199 39.32 31.8999 48 31.8999C56.68 31.8999 64 39.2199 64 47.8999V50.7599C64 52.3399 62.58 53.8999 61 53.8999C59.42 53.8999 58 52.3399 58 50.7599V47.8999C58 42.3799 53.52 37.8999 48 37.8999C42.48 37.8999 38 42.3799 38 47.8999C38 53.4199 42.48 57.8999 48 57.8999C50.76 57.8999 53.28 56.7799 55.08 54.9599C56.38 56.7399 58.62 57.8999 61 57.8999C64.94 57.8999 68 54.6999 68 50.7599V47.8999C68 36.8599 59.04 27.8999 48 27.8999ZM48 53.8999C44.68 53.8999 42 51.2199 42 47.8999C42 44.5799 44.68 41.8999 48 41.8999C51.32 41.8999 54 44.5799 54 47.8999C54 51.2199 51.32 53.8999 48 53.8999Z" fill="black"/>
</svg>

<svg viewBox="0 0 96 96" xmlns="http://www.w3.org/2000/svg"><path d="m48 27.9c-11.04 0-20 8.96-20 20s8.96 20 20 20h8c1.1046 0 2-0.8954 2-2s-0.8954-2-2-2h-8c-8.68 0-16-7.32-16-16s7.32-16 16-16 16 7.32 16 16v2.86c0 1.58-1.42 3.14-3 3.14s-3-1.56-3-3.14v-2.86c0-5.52-4.48-10-10-10s-10 4.48-10 10 4.48 10 10 10c2.76 0 5.28-1.12 7.08-2.94 1.3 1.78 3.54 2.94 5.92 2.94 3.94 0 7-3.2 7-7.14v-2.86c0-11.04-8.96-20-20-20zm0 26c-3.32 0-6-2.68-6-6s2.68-6 6-6 6 2.68 6 6-2.68 6-6 6z" fill="#000"/></svg>
